icon/gr/internet-explorer.svg

<svg xmlns="http://www.w3.org/2000/svg" viewBox="0 0 24 24" height="1em" width="1em">
  <path fill="#00A1F1" fill-rule="evenodd" d="M23.9995527,12.3365818 C23.9995527,10.4393317 23.5090273,8.656914 22.6488466,7.1080745 C26.3153205,-1.18993486 18.7201703,0.0254770168 18.2972919,0.108218948 C16.688185,0.423085539 15.1995011,0.928594013 13.8263205,1.56939672 C13.6238264,1.55799176 13.4201024,1.5517302 13.2148129,1.5517302 C8.09006842,1.5517302 3.80034655,5.12618162 2.70245058,9.91794575 C5.40352737,6.88769025 7.29384506,5.6650105 8.42584412,5.17571497 C8.24515364,5.33717355 8.06826481,5.50042114 7.89428312,5.66489868 C7.83636377,5.71957545 7.78056888,5.7750349 7.72343222,5.83004711 C7.60871165,5.94040695 7.49421471,6.05087861 7.38240129,6.16235659 C7.3158723,6.22866195 7.25113233,6.29552637 7.18560967,6.36227899 C7.08643116,6.4632465 6.98747629,6.56410221 6.89064586,6.6656288 C6.82188061,6.73774845 6.75479256,6.81009173 6.68725725,6.8823232 C6.59680019,6.97915363 6.5069022,7.07609586 6.41868142,7.17337354 C6.35013979,7.24895941 6.2827163,7.32454528 6.21540462,7.40035478 C6.13176818,7.49450168 6.04891444,7.58864858 5.96717882,7.68301911 C5.89941989,7.7612885 5.83222003,7.8395579 5.76580285,7.9179391 C5.68831615,8.00940248 5.61183578,8.10086586 5.53613809,8.19232924 C5.46916185,8.27328215 5.40240924,8.35412326 5.33688657,8.43496436 C5.26599687,8.52240245 5.19667255,8.60972873 5.12746004,8.6969432 C5.06037199,8.78147415 4.99328393,8.86589328 4.92776127,8.95031241 C4.86536938,9.03070626 4.80476651,9.11076467 4.74371638,9.19093489 C4.67483931,9.28150376 4.60540318,9.37207263 4.53831513,9.46219425 C4.49034717,9.52671059 4.44428004,9.59055606 4.39720659,9.65484877 C3.97108565,10.2362786 3.58175132,10.806527 3.23009811,11.3543009 C3.2292036,11.3556427 3.22830909,11.3569845 3.2275264,11.3583262 C3.13494489,11.5025655 3.04560597,11.6446804 2.95805606,11.7855653 C2.95335989,11.7931686 2.9484401,11.8008838 2.94374394,11.8085989 C2.85608222,11.9500429 2.77143946,12.0890269 2.68892115,12.2265574 C2.68601401,12.2313654 2.68299504,12.2362852 2.68008789,12.2410932 C2.45825007,12.6113074 2.25251338,12.9682159 2.06723854,13.3039916 C1.09591536,15.0642702 0.623056401,16.294106 0.602594545,16.3671202 C-2.4646712,27.332886 7.10834659,22.7021332 8.44418153,22.0109026 C9.88254936,22.7214769 11.5018313,23.1214335 13.2148129,23.1214335 C17.9042678,23.1214335 21.894106,20.1280764 23.3792119,15.9479317 L17.7125077,15.9479317 C16.8740189,17.3644959 15.2597686,18.3239669 13.4052312,18.3239669 C10.6880532,18.3239669 8.48544068,16.2652582 8.48544068,13.72564 L23.9112201,13.72564 C23.9696986,13.270783 24,12.8072045 24,12.3365818 L23.9995527,12.3365818 Z M21.9848985,1.72369924 C22.9136208,2.35052528 23.6585218,3.33493063 22.3792645,6.65008673 C21.1523358,4.6769153 19.3064081,3.12908212 17.1124051,2.27829381 C18.1104517,1.79626615 20.5820874,0.776751388 21.9848985,1.72369924 L21.9848985,1.72369924 Z M2.24759358,21.9887635 C1.4911758,21.213002 1.35744695,19.3235789 3.02659768,15.88062 C3.86899999,18.3026105 5.55000295,20.3320241 7.72276134,21.6200029 C6.64219644,22.2147385 3.77351133,23.553816 2.24759358,21.9887635 L2.24759358,21.9887635 Z M8.46117717,10.7761138 C8.54738531,8.3078325 10.6955447,6.3315303 13.3349005,6.3315303 C15.9741445,6.3315303 18.1224157,8.3078325 18.2086239,10.7761138 L8.46117717,10.7761138 L8.46117717,10.7761138 Z"/>
</svg>

<svg xmlns="http://www.w3.org/2000/svg" width="24" height="24"><path fill="#00A1F1" fill-rule="evenodd" d="M24 12.337c0-1.898-.491-3.68-1.351-5.229 3.666-8.298-3.929-7.083-4.352-7-1.609.315-3.097.82-4.47 1.461a10.868 10.868 0 0 0-.612-.017C8.09 1.552 3.8 5.126 2.702 9.918c2.702-3.03 4.592-4.253 5.724-4.742-.18.161-.358.324-.532.489l-.17.165c-.115.11-.23.22-.342.332l-.196.2c-.1.101-.199.202-.295.304-.07.072-.136.144-.204.216a26.855 26.855 0 0 0-1.15 1.31 31.222 31.222 0 0 0-.41.505l-.2.253-.183.24-.206.272-.14.193a33.453 33.453 0 0 0-1.168 1.7l-.002.003c-.093.145-.182.287-.27.428l-.014.023c-.088.141-.173.28-.255.418l-.009.014c-.222.37-.427.727-.613 1.063-.971 1.76-1.444 2.99-1.464 3.063-3.068 10.966 6.505 6.335 7.841 5.644a10.74 10.74 0 0 0 4.77 1.11c4.69 0 8.68-2.993 10.165-7.173h-5.666c-.839 1.416-2.453 2.376-4.308 2.376-2.717 0-4.92-2.059-4.92-4.598h15.426c.059-.455.089-.919.089-1.39ZM21.985 1.724c.929.627 1.674 1.61.394 4.926a10.82 10.82 0 0 0-5.267-4.372c.998-.482 3.47-1.501 4.873-.554ZM2.248 21.989c-.757-.776-.89-2.665.779-6.108a10.816 10.816 0 0 0 4.696 5.739c-1.08.595-3.95 1.934-5.475.369ZM8.46 10.776c.086-2.468 2.235-4.444 4.874-4.444 2.64 0 4.787 1.976 4.874 4.444H8.46Z"/></svg>
